build/images/icons/mail.svg

<svg width="24" height="24" viewBox="0 0 24 24" fill="none" xmlns="http://www.w3.org/2000/svg">
<path d="M19.875 4H4.875C3.84375 4 3.00937 4.84375 3.00937 5.875L3 17.125C3 18.1562 3.84375 19 4.875 19H19.875C20.9062 19 21.75 18.1562 21.75 17.125V5.875C21.75 4.84375 20.9062 4 19.875 4ZM19.5 7.98438L12.8719 12.1281C12.5719 12.3156 12.1781 12.3156 11.8781 12.1281L5.25 7.98438C5.15599 7.9316 5.07367 7.86031 5.00802 7.7748C4.94237 7.68929 4.89475 7.59135 4.86804 7.48691C4.84133 7.38247 4.8361 7.27369 4.85265 7.16716C4.8692 7.06064 4.90719 6.95858 4.96433 6.86716C5.02146 6.77574 5.09655 6.69686 5.18506 6.63531C5.27356 6.57375 5.37363 6.53079 5.47921 6.50903C5.5848 6.48727 5.6937 6.48716 5.79933 6.5087C5.90496 6.53025 6.00512 6.573 6.09375 6.63437L12.375 10.5625L18.6563 6.63437C18.7449 6.573 18.845 6.53025 18.9507 6.5087C19.0563 6.48716 19.1652 6.48727 19.2708 6.50903C19.3764 6.53079 19.4764 6.57375 19.5649 6.63531C19.6534 6.69686 19.7285 6.77574 19.7857 6.86716C19.8428 6.95858 19.8808 7.06064 19.8974 7.16716C19.9139 7.27369 19.9087 7.38247 19.882 7.48691C19.8553 7.59135 19.8076 7.68929 19.742 7.7748C19.6763 7.86031 19.594 7.9316 19.5 7.98438Z" fill="white"/>
</svg>

<svg width="24" height="24" viewBox="0 0 24 24" fill="none" xmlns="http://www.w3.org/2000/svg"><path d="M19.875 4h-15a1.873 1.873 0 00-1.866 1.875L3 17.125A1.88 1.88 0 004.875 19h15a1.88 1.88 0 001.875-1.875V5.875A1.88 1.88 0 0019.875 4zM19.5 7.984l-6.628 4.144a.948.948 0 01-.994 0L5.25 7.984a.797.797 0 11.844-1.35l6.281 3.928 6.281-3.928a.796.796 0 11.844 1.35z" fill="#fff"/></svg>
